modules/hawcons-stroke/icons/icon-23-one-finger-double-tap.svg

<?xml version="1.0" encoding="UTF-8" standalone="no"?>
<svg width="32px" height="32px" viewBox="0 0 32 32" version="1.1" xmlns="http://www.w3.org/2000/svg" xmlns:xlink="http://www.w3.org/1999/xlink" xmlns:sketch="http://www.bohemiancoding.com/sketch/ns">
    <!-- Generator: Sketch 3.0.3 (7891) - http://www.bohemiancoding.com/sketch -->
    <title>icon 23 one finger double tap</title>
    <desc>Created with Sketch.</desc>
    <defs></defs>
    <g id="Page-1" stroke="none" stroke-width="1" fill="none" fill-rule="evenodd" sketch:type="MSPage">
        <g id="icon-23-one-finger-double-tap" sketch:type="MSArtboardGroup" fill="#929292">
            <path d="M18.8079869,11.2526203 C19.5587692,10.1925881 20,8.89782159 20,7.5 C20,3.91014895 17.0898511,1 13.5,1 C9.91014895,1 7,3.91014895 7,7.5 C7,9.80120872 8.19584359,11.823113 10,12.9781822 L10,11.742838 C8.77849665,10.7340464 8,9.20793705 8,7.5 C8,4.46243373 10.4624337,2 13.5,2 C16.5375663,2 19,4.46243373 19,7.5 C19,8.83329694 18.5255758,10.0557861 17.7363318,11.0078632 C18.1127655,11.0329911 18.4731402,11.1176946 18.8079869,11.2526203 L18.8079869,11.2526203 L18.8079869,11.2526203 Z M17,10.3286673 C17.6253999,9.55580421 18,8.57164839 18,7.5 C18,5.0147185 15.9852815,3 13.5,3 C11.0147185,3 9,5.0147185 9,7.5 C9,8.57164839 9.37460006,9.55580421 10,10.3286673 L10,7.49129639 C10,5.56125662 11.5670034,4 13.5,4 C15.4290634,4 17,5.56310664 17,7.49129639 L17,10.3286673 L17,10.3286673 L17,10.3286673 Z M19.4987391,30.9999999 C23.6415711,31 27,27.4147752 27,23.5 C27,23.5 27,25.8132437 27,23.5 L27,19.7491622 L27,17.5016756 C27,16.6723231 26.3342028,16 25.5,16 C24.6715729,16 24,16.6711894 24,17.5016756 L24,18 L23,18 L23,15.5064385 C23,14.6744555 22.3342028,14 21.5,14 C20.6715729,14 20,14.6715406 20,15.5064385 L20,17 L19,17 L19,14.5064385 C19,13.6744555 18.3342028,13 17.5,13 C16.6715729,13 16,13.6715406 16,14.5064385 L16,18 L15,18 L15,7.50524116 C15,6.67391942 14.3342028,6 13.5,6 C12.6715729,6 12,6.66712976 12,7.50524116 L12,18.7999878 C9.94160039,16.599567 7.23162978,14.1791206 6.12103271,15.2957153 C5.03386293,16.3887562 7.83536199,19.4007216 11.7473755,25.9830936 C13.5099958,28.9488875 15.7402849,30.9995418 19.4987391,30.9999999 L19.4987391,30.9999999 Z M28,23.5 C28,28.1944206 24.1944206,32 19.5,32.0000003 C16.3870848,32.0000003 13.101807,30.5474856 10.8408204,26.4282229 C7.57733174,20.4825159 3.40385286,16.5832077 5.39111327,14.5959473 C6.81276236,13.1742982 9.04484162,14.5381668 11,16.3667868 L11,16.3667868 L11,7.50840855 C11,6.11541748 12.1192881,5 13.5,5 C14.8903379,5 16,6.12305276 16,7.50840855 L16,12.4983653 C16.4178303,12.1853054 16.937197,12 17.5,12 C18.5825181,12 19.4948851,12.6774672 19.8458175,13.6281239 C20.2865931,13.2379894 20.8657109,13 21.5,13 C22.8903379,13 24,14.1182256 24,15.4976267 L24,15.5110883 C24.4178303,15.1985158 24.937197,15.014191 25.5,15.014191 C26.8903379,15.014191 28,16.1335355 28,17.5143168 L28,23.5 L28,23.5 Z" id="one-finger-double-tap" sketch:type="MSShapeGroup"></path>
        </g>
    </g>
</svg>

<svg width="32" height="32" viewBox="0 0 32 32" xmlns="http://www.w3.org/2000/svg"><path d="M18.808 11.253A6.5 6.5 0 1 0 10 12.979v-1.236a5.5 5.5 0 1 1 7.736-.735c.377.025.737.11 1.072.245zM17 10.329a4.5 4.5 0 1 0-7 0V7.49A3.494 3.494 0 0 1 13.5 4C15.43 4 17 5.563 17 7.491v2.838zM19.499 31C23.642 31 27 27.415 27 23.5c0 0 0 2.313 0 0v-5.998a1.5 1.5 0 0 0-3 0V18h-1v-2.494a1.5 1.5 0 1 0-3 0V17h-1v-2.494a1.5 1.5 0 1 0-3 0V18h-1V7.505a1.499 1.499 0 1 0-3 0V18.8c-2.058-2.2-4.768-4.62-5.879-3.504-1.087 1.093 1.714 4.105 5.626 10.687C13.51 28.95 15.74 31 19.5 31zM28 23.5a8.5 8.5 0 0 1-8.5 8.5c-3.113 0-6.398-1.453-8.66-5.572-3.263-5.945-7.436-9.845-5.449-11.832 1.422-1.422 3.654-.058 5.609 1.77V7.509a2.5 2.5 0 1 1 5 0v4.99A2.493 2.493 0 0 1 17.5 12c1.083 0 1.995.677 2.346 1.628.44-.39 1.02-.628 1.654-.628 1.39 0 2.5 1.118 2.5 2.498v.013a2.495 2.495 0 0 1 1.5-.497c1.39 0 2.5 1.12 2.5 2.5V23.5z" fill="#929292" fill-rule="evenodd"/></svg>
